X:64
M:C |
L:1/8
K:Gmin
|: d2e2 | f2d2B2d2 | f4 e2d2 | c2A2F2A2 | c4 B2c2 | d2d2c2B2 | B2A2G2^F2 | .G4 .G4 | .G4 :|

